X: 355
T: Zizhao de duixiang xinzhong ai
L: 1/16
M: 2/4
K: Bb
d'2 d' a c'2 b c' [I:setbarnb 1]| 
b2> c'2 g'2 f' d' | 
c'2 f' a g2 f d | 
c8 | 
d'2 d' a c'2 b c' | 
b2> c'2 g'2 f' d' | 
c'2 f' a g2 f d | 
f8 |]

@@@ Tune index: 9229
